!!!COM: Music21
!!!OTL: reel_Shoot-When-The-Ducks-Are-Flying
!!!OMV: reel_Shoot-When-The-Ducks-Are-Flying
**kern
*clefG2
*k[f#]
*e:
*M4/4
=1
8eeL
8eeJ
8eeL
8ddJ
8eeL
8ff#J
8ff#L
8ff#J
=
4ee
8eeL
8ddJ
8eeL
8bJ
8bL
8bJ
=
8eeL
8eeJ
8eeL
8ddJ
8eeL
8ff#J
8ff#L
8ff#J
=
8bbL
8aaJ
8aaL
8ff#J
8ff#L
8eeJ
8ddL
8bJ
=
4ee
8eeL
8ddJ
8eeL
8ff#J
8ff#L
8ff#J
!!linebreak:original
=
4ee
8eeL
8ddJ
8eeL
8bJ
8bL
8bJ
=
4ee
8eeL
8ddJ
8eeL
8ff#J
8ff#L
8ff#J
=
4bb
8aaL
8ff#J
8ff#L
8eeJ
8ddL
8aJ
=||
8bL
8bJ
8bL
8aJ
8aL
8f#J
8f#L
8dJ
=
8eL
8eJ
8eL
8dJ
8eL
8f#J
8f#L
8f#J
!!linebreak:original
=
8bL
8bJ
8bL
8aJ
8aL
8f#J
8aL
8bJ
=
8ddL
8aJ
8ddL
8eeJ
8ff#L
8eeJ
8ddL
8aJ
=
4.b
8a
8aL
8f#J
8f#L
8dJ
=
8eL
8eJ
8eL
8dJ
8eL
8f#J
8f#L
8f#J
=
8bL
8aJ
8f#L
8aJ
8aL
8f#J
8aL
8bJ
!!linebreak:original
=
8ddL
8aJ
8ddL
8eeJ
8ff#L
8eeJ
8ddL
8bJ
=||
*-
